X:1
T:Coal Tattoo
M:4/4
L:1/8
K:G
 G2 GG G2 G2|F-E D2 E4| GG GG FE D2| E8| G2 GG G2 GG| FE D2 E4| G2 GGF-E D2|\
 E8| B2 BB B2 BB|A-A A2 B4| B2 BB A2 BA| G4- F2 FF| G2 DD D2 D2| ED C2 D4|\
 G2 G2 FE D2| E8|
